X:1
T: Colonel Thornton
C:
R:Reel
Q: 232
K:Em
M:4/4
L:1/8
F2|E2 E2 B2 E2|G2 E2 B2 G2|F2 D2 A2 D2|B2 D2 A2 D2|E2 E2 B2 E2|G2 E2 B2 G2|F2 D2 A2 F2|B4 E4|
E2 E2 e4|B2 B2 e4|d2 B2 A2 d2|F2 D2 A2 F2|E2 E2 e4|B2 B2 e4|d2 B2 A2 F2|E4-E4|
GF E2 B2 E2|GF E2 B2 E2|FE D2 A2 D2|B2 D2 A2 D2|GF E2 B2 E2|GF E2 B2 E2|FE D2 A2 F2|B4 E4|
E2 E2 e4|B2 B2 e4|d2 B2 A2 d2|F2 D2 A2 F2|E2 E2 e4|B2 B2 e4|d2 B2 A2 F2|E4-E2||

